X:144
%%etbk:tnset id:368,pos:2,rep:3x,ant:
%%etbk:wsite http://www.thesession.org/tunes/display/1339
%%etbk:pldat 2015-08-16T15:30,2015-08-11T16:03,2015-08-09T16:42,2015-07-27T18:05,2015-07-24T17:50,2015-07-18T16:43,2015-07-17T11:34,2015-07-15T17:12,2015-07-11T14:38,2015-07-08T11:14,2015-06-05T16:39,2015-06-01T16:48,2015-05-31T11:45,2015-05-17T13:47,2015-05-06T15:15,2015-04-06T12:19,2015-04-04T15:49,2015-02-11T17:52,2015-02-09T19:47,2015-02-03T16:19,2015-02-02T19:45,2015-01-31T16:09,2015-01-27T17:35,2015-01-26T19:00,2015-01-25T16:12,2015-01-24T13:21,2015-01-22T19:24,2015-01-21T17:50,2015-01-20T15:37,2015-01-19T19:24,2014-12-28T14:45,2014-04-06T16:10,2014-02-11T19:06,2014-02-07T16:27,2014-02-06T18:39,2013-05-15T15:49,2013-05-02T18:12
T: Mullinavat
Z: Piano Box Version by Martin Fleischmann
H: Created 2013-02-19 /  Last Modified 2015-08-16
M: 4/4
L: 1/8
R: reel
K: Edor
ef|:!4!gfed !3!B!2!A!1!G!2!F|!3!GBAG !1!~E3F|!3!GEB,E !3!G!4!A!2!Bd|!5!e!1!BBB!1!B2!2!ef|
!4!g2fd !2!ed!3!B!4!c|!3!B!2!A!1!G!2!F ~E2EF|!3!G2GF !1!GA!3!B!2!A |!3!B!4!d !2!ed e2 :||
ef|:!4!geBe !3!gabg |afdf afdf |geBe gabg |afdf gee2|
geBe gabg |af!1!d!1!e fg az |!5!bg!4!af !4!gfed |Bgfd e2 :||


